X:1
T:Title
%%score { ( 1 3 ) | ( 2 4 ) }
L:1/8
Q:1/4=100
M:4/4
K:A
V:1 treble nm="Grand Piano"
V:3 treble 
V:2 bass 
V:4 bass 
V:1
 [Ec]2 [Ec]>[Fd] [Ec]2 [EA]2 | [DF]4 [CE]4 | E2 D>C D2 F2 | C4- [CA]4 | %4
w: John~R.~Sweney * * * *||||
 [Ec]2 [Ec]>[Fd] [Ec]2 [EA]2 | [FA]4 F2 d2 | c2 E>B A2 G2 | [CA]6 z2 | %8
w: ||||
 [^DA]2 [DA]>[DG] [DA]2 [Dc]2 | B4 G4 | ^dc [GB]>[Ac] [GB]2 [B,FA]2 | [B,EG]6 z2 | %12
w: ||||
 [^DFA]2 [DFA]>[D^EG] [DFA]2 [B,DF]2 | [B,EG]2 [GB]2 [Ge]4 | [F^d][^DF] [DA]>[Dc] [EB]2 D2 | %15
w: |||
 E4 d4 | [Ec]2 [Ec]>[Fd] [Ec]2 [EA]2 | [DF]4 [CE]4 | E2 D>C D2 F2 | C4- [CA]4 | %20
w: |||||
 [Ec]2 [Ec]>[Fd] [Ec]2 [EA]2 | [FA]4 F2 d2 | c2 E>B A2 G2 |[M:8/4] [CA]8 z8 |] %24
w: ||||
V:2
 [A,,A,]2 [A,,A,]>[A,,A,] [A,,A,]2 [C,A,]2 | [D,A,]4 [A,,A,]4 | %2
 [E,G,D]2 [E,G,B,]>[E,G,^A,] [E,G,B,]2 [E,G,D]2 | z4 E,4 | %4
 [A,,A,]2 [A,,A,]>[A,,A,] [A,,A,]2 [C,A,]2 | [D,A,]4 D2 F2 | %6
 [E,A,E]2 [E,C]>[E,DE] [E,CE]2 [E,B,D]2 | [A,,A,]6 z2 | %8
 [B,,F,]2 [B,,F,]>[B,,^E,] [B,,F,]2 [B,,A,]2 | [E,G,E]4 [E,B,E]4 | FA B,>B, B,2[K:bass] B,,2 | %11
 E,6 z2 | B,,2 B,,>B,, B,,2 B,,2 | z2 E2 [E,B,]4 | [B,,B,]2 [B,,B,]>[B,,A,] [B,,G,]2 [B,,F,B,]2 | %15
 [G,B,]4 [B,E]4 | [A,,A,]2 [A,,A,]>[A,,A,] [A,,A,]2 [C,A,]2 | [D,A,]4 [A,,A,]4 | %18
 [E,G,D]2 [E,G,B,]>[E,G,^A,] [E,G,B,]2 [E,G,D]2 | z4 E,4 | %20
 [A,,A,]2 [A,,A,]>[A,,A,] [A,,A,]2 [C,A,]2 | [D,A,]4 D2 F2 | %22
 [E,A,E]2 [E,C]>[E,DE] [E,CE]2 [E,B,D]2 |[M:8/4] [A,,A,]8 z8 |] %24
V:3
 x8 | x8 | x8 | [A,E]4 z4 | x8 | x8 | x8 | x8 | x8 | x8 | x8 | x8 | x8 | x8 | x8 | x8 | x8 | x8 | %18
 x8 | [A,E]4 z4 | x8 | x8 | x8 |[M:8/4] x16 |] %24
V:4
 x8 | x8 | x8 | A,,8 | x8 | z4 [D,A,]4 | x8 | x8 | x8 | x8 | B,2 z2 z4[K:bass] | x8 | x8 | E,4 z4 | %14
 x8 | E,8 | x8 | x8 | x8 | A,,8 | x8 | z4 [D,A,]4 | x8 |[M:8/4] x16 |] %24

